X:1
T:(unknown title)
M:3/4
L:1/4
K:F
 C A3/2 A/2| A G F| A, C F| F2 A| c3/2 A/2 A| A G F| C E G| c3-| c2 c|\
 c3/2 A/2 A| A G F| D3/2 D/2 D| B2 B| c3/2 c/2 c| d c A/2A/2| G D E|\
 F3-| F3|

